!!!COM:      Bach, Johann Sebastian
!!!CDT:      1685/03/31/-1750/07/28/
!!!OPR@@GER: Das wohltemperirte Clavier
!!!OVM@@GER: Band I
!!!OPR@ENG:  Well-Tempered Clavier
!!!OVM@ENG:  Book I
!!!OTL:      Prelude
!!!OKY:      C major
!!!ONM:      no. 1
!!!SCT:      BWV 846
!!!OMV:      1
**kern	**kern	**kern
*staff2.1	*staff1.2	*staff1.1
*clefF4	*clefG2	*clefG2
*k[]	*k[]	*k[]
*C:	*C:	*C:
*M4/4	*M4/4	*M4/4
*met(c)	*met(c)	*met(c)
*MM96	*MM96	*MM96
=1-	=1-	=1-
2c	16r	8r
.	[8.e	.
.	.	16gLL
.	.	16ccJJ
.	4e]	16eeLL
.	.	16g
.	.	16cc
.	.	16eeJJ
2c	16r	8r
.	[8.e	.
.	.	16gLL
.	.	16ccJJ
.	4e]	16eeLL
.	.	16g
.	.	16cc
.	.	16eeJJ
=2	=2	=2
2c	16r	8r
.	[8.d	.
.	.	16aLL
.	.	16ddJJ
.	4d]	16ffLL
.	.	16a
.	.	16dd
.	.	16ffJJ
2c	16r	8r
.	[8.d	.
.	.	16aLL
.	.	16ddJJ
.	4d]	16ffLL
.	.	16a
.	.	16dd
.	.	16ffJJ
=3	=3	=3
2B	16r	8r
.	[8.d	.
.	.	16gLL
.	.	16ddJJ
.	4d]	16ffLL
.	.	16g
.	.	16dd
.	.	16ffJJ
2B	16r	8r
.	[8.d	.
.	.	16gLL
.	.	16ddJJ
.	4d]	16ffLL
.	.	16g
.	.	16dd
.	.	16ffJJ
=4	=4	=4
2c	16r	8r
.	[8.e	.
.	.	16gLL
.	.	16ccJJ
.	4e]	16eeLL
.	.	16g
.	.	16cc
.	.	16eeJJ
2c	16r	8r
.	[8.e	.
.	.	16gLL
.	.	16ccJJ
.	4e]	16eeLL
.	.	16g
.	.	16cc
.	.	16eeJJ
=5	=5	=5
2c	16r	8r
.	[8.e	.
.	.	16aLL
.	.	16eeJJ
.	4e]	16aaLL
.	.	16a
.	.	16ee
.	.	16aaJJ
2c	16r	8r
.	[8.e	.
.	.	16aLL
.	.	16eeJJ
.	4e]	16aaLL
.	.	16a
.	.	16ee
.	.	16aaJJ
=6	=6	=6
2c	16r	8r
.	[8.d	.
.	.	16f#LL
.	.	16aJJ
.	4d]	16ddLL
.	.	16f#
.	.	16a
.	.	16ddJJ
2c	16r	8r
.	[8.d	.
.	.	16f#LL
.	.	16aJJ
.	4d]	16ddLL
.	.	16f#
.	.	16a
.	.	16ddJJ
=7	=7	=7
2B	16r	8r
.	[8.d	.
.	.	16gLL
.	.	16ddJJ
.	4d]	16ggLL
.	.	16g
.	.	16dd
.	.	16ggJJ
2B	16r	8r
.	[8.d	.
.	.	16gLL
.	.	16ddJJ
.	4d]	16ggLL
.	.	16g
.	.	16dd
.	.	16ggJJ
=8	=8	=8
2B	16r	8r
.	[8.c	.
.	.	16eLL
.	.	16gJJ
.	4c]	16ccLL
.	.	16e
.	.	16g
.	.	16ccJJ
2B	16r	8r
.	[8.c	.
.	.	16eLL
.	.	16gJJ
.	4c]	16ccLL
.	.	16e
.	.	16g
.	.	16ccJJ
=9	=9	=9
2A	16r	8r
.	[8.c	.
.	.	16eLL
.	.	16gJJ
.	4c]	16ccLL
.	.	16e
.	.	16g
.	.	16ccJJ
2A	16r	8r
.	[8.c	.
.	.	16eLL
.	.	16gJJ
.	4c]	16ccLL
.	.	16e
.	.	16g
.	.	16ccJJ
=10	=10	=10
*staff2.2	*staff2.1	*
*	*clefF4	*
2D	16r	8r
.	[8.A	.
.	.	16dLL
.	.	16f#JJ
.	4A]	16ccLL
.	.	16d
.	.	16f#
.	.	16ccJJ
2D	16r	8r
.	[8.A	.
.	.	16dLL
.	.	16f#JJ
.	4A]	16ccLL
.	.	16d
.	.	16f#
.	.	16ccJJ
=11	=11	=11
2G	16r	8r
.	[8.B	.
.	.	16dLL
.	.	16gJJ
.	4B]	16bLL
.	.	16d
.	.	16g
.	.	16bJJ
2G	16r	8r
.	[8.B	.
.	.	16dLL
.	.	16gJJ
.	4B]	16bLL
.	.	16d
.	.	16g
.	.	16bJJ
=12	=12	=12
2G	16r	8r
.	[8.B-	.
.	.	16eLL
.	.	16gJJ
.	4B-]	16cc#LL
.	.	16e
.	.	16g
.	.	16cc#JJ
2G	16r	8r
.	[8.B-	.
.	.	16eLL
.	.	16gJJ
.	4B-]	16cc#LL
.	.	16e
.	.	16g
.	.	16cc#JJ
=13	=13	=13
2F	16r	8r
.	[8.A	.
.	.	16dLL
.	.	16aJJ
.	4A]	16ddLL
.	.	16d
.	.	16a
.	.	16ddJJ
2F	16r	8r
.	[8.A	.
.	.	16dLL
.	.	16aJJ
.	4A]	16ddLL
.	.	16d
.	.	16a
.	.	16ddJJ
=14	=14	=14
2F	16r	8r
.	[8.A-	.
.	.	16dLL
.	.	16fJJ
.	4A-]	16bLL
.	.	16d
.	.	16f
.	.	16bJJ
2F	16r	8r
.	[8.A-	.
.	.	16dLL
.	.	16fJJ
.	4A-]	16bLL
.	.	16d
.	.	16f
.	.	16bJJ
=15	=15	=15
2E	16r	8r
.	[8.G	.
.	.	16cLL
.	.	16gJJ
.	4G]	16ccLL
.	.	16c
.	.	16g
.	.	16ccJJ
2E	16r	8r
.	[8.G	.
.	.	16cLL
.	.	16gJJ
.	4G]	16ccLL
.	.	16c
.	.	16g
.	.	16ccJJ
=16	=16	=16
2E	16r	8r
.	[8.F	.
.	.	16ALL
.	.	16cJJ
.	4F]	16fLL
.	.	16A
.	.	16c
.	.	16fJJ
2E	16r	8r
.	[8.F	.
.	.	16ALL
.	.	16cJJ
.	4F]	16fLL
.	.	16A
.	.	16c
.	.	16fJJ
=17	=17	=17
2D	16r	8r
.	[8.F	.
.	.	16ALL
.	.	16cJJ
.	4F]	16fLL
.	.	16A
.	.	16c
.	.	16fJJ
2D	16r	8r
.	[8.F	.
.	.	16ALL
.	.	16cJJ
.	4F]	16fLL
.	.	16A
.	.	16c
.	.	16fJJ
=18	=18	=18
2GG	16r	8r
.	[8.D	.
.	.	16GLL
.	.	16BJJ
.	4D]	16fLL
.	.	16G
.	.	16B
.	.	16fJJ
2GG	16r	8r
.	[8.D	.
.	.	16GLL
.	.	16BJJ
.	4D]	16fLL
.	.	16G
.	.	16B
.	.	16fJJ
=19	=19	=19
2C	16r	8r
.	[8.E	.
.	.	16GLL
.	.	16cJJ
.	4E]	16eLL
.	.	16G
.	.	16c
.	.	16eJJ
2C	16r	8r
.	[8.E	.
.	.	16GLL
.	.	16cJJ
.	4E]	16eLL
.	.	16G
.	.	16c
.	.	16eJJ
=20	=20	=20
2C	16r	8r
.	[8.G	.
.	.	16B-LL
.	.	16cJJ
.	4G]	16eLL
.	.	16B-
.	.	16c
.	.	16eJJ
2C	16r	8r
.	[8.G	.
.	.	16B-LL
.	.	16cJJ
.	4G]	16eLL
.	.	16B-
.	.	16c
.	.	16eJJ
=21	=21	=21
2FF	16r	8r
.	[8.F	.
.	.	16ALL
.	.	16cJJ
.	4F]	16eLL
.	.	16A
.	.	16c
.	.	16eJJ
2FF	16r	8r
.	[8.F	.
.	.	16ALL
.	.	16cJJ
.	4F]	16eLL
.	.	16A
.	.	16c
.	.	16eJJ
=22	=22	=22
2FF#	16r	8r
.	[8.C	.
.	.	16ALL
.	.	16cJJ
.	4C]	16e-LL
.	.	16A
.	.	16c
.	.	16e-JJ
2FF#	16r	8r
.	[8.C	.
.	.	16ALL
.	.	16cJJ
.	4C]	16e-LL
.	.	16A
.	.	16c
.	.	16e-JJ
=23	=23	=23
2AA-	16r	8r
.	[8.F	.
.	.	16BLL
.	.	16cJJ
.	4F]	16dLL
.	.	16B
.	.	16c
.	.	16dJJ
2AA-	16r	8r
.	[8.F	.
.	.	16BLL
.	.	16cJJ
.	4F]	16dLL
.	.	16B
.	.	16c
.	.	16dJJ
=24	=24	=24
2GG	16r	8r
.	[8.F	.
.	.	16GLL
.	.	16BJJ
.	4F]	16dLL
.	.	16G
.	.	16B
.	.	16dJJ
2GG	16r	8r
.	[8.F	.
.	.	16GLL
.	.	16BJJ
.	4F]	16dLL
.	.	16G
.	.	16B
.	.	16dJJ
=25	=25	=25
2GG	16r	8r
.	[8.E	.
.	.	16GLL
.	.	16cJJ
.	4E]	16eLL
.	.	16G
.	.	16c
.	.	16eJJ
2GG	16r	8r
.	[8.E	.
.	.	16GLL
.	.	16cJJ
.	4E]	16eLL
.	.	16G
.	.	16c
.	.	16eJJ
=26	=26	=26
2GG	16r	8r
.	[8.D	.
.	.	16GLL
.	.	16cJJ
.	4D]	16fLL
.	.	16G
.	.	16c
.	.	16fJJ
2GG	16r	8r
.	[8.D	.
.	.	16GLL
.	.	16cJJ
.	4D]	16fLL
.	.	16G
.	.	16c
.	.	16fJJ
=27	=27	=27
2GG	16r	8r
.	[8.D	.
.	.	16GLL
.	.	16BJJ
.	4D]	16fLL
.	.	16G
.	.	16B
.	.	16fJJ
2GG	16r	8r
.	[8.D	.
.	.	16GLL
.	.	16BJJ
.	4D]	16fLL
.	.	16G
.	.	16B
.	.	16fJJ
=28	=28	=28
2GG	16r	8r
.	[8.E-	.
.	.	16ALL
.	.	16cJJ
.	4E-]	16f#LL
.	.	16A
.	.	16c
.	.	16f#JJ
2GG	16r	8r
.	[8.E-	.
.	.	16ALL
.	.	16cJJ
.	4E-]	16f#LL
.	.	16A
.	.	16c
.	.	16f#JJ
=29	=29	=29
2GG	16r	8r
.	[8.EnX	.
.	.	16GLL
.	.	16cJJ
.	4E]	16gLL
.	.	16G
.	.	16c
.	.	16gJJ
2GG	16r	8r
.	[8.E	.
.	.	16GLL
.	.	16cJJ
.	4E]	16gLL
.	.	16G
.	.	16c
.	.	16gJJ
=30	=30	=30
2GG	16r	8r
.	[8.D	.
.	.	16GLL
.	.	16cJJ
.	4D]	16fLL
.	.	16G
.	.	16c
.	.	16fJJ
2GG	16r	8r
.	[8.D	.
.	.	16GLL
.	.	16cJJ
.	4D]	16fLL
.	.	16G
.	.	16c
.	.	16fJJ
=31	=31	=31
2GG	16r	8r
.	[8.D	.
.	.	16GLL
.	.	16BJJ
.	4D]	16fLL
.	.	16G
.	.	16B
.	.	16fJJ
2GG	16r	8r
.	[8.D	.
.	.	16GLL
.	.	16BJJ
.	4D]	16fLL
.	.	16G
.	.	16B
.	.	16fJJ
=32	=32	=32
2CC	16r	8r
.	[8.C	.
.	.	16GLL
.	.	16B-JJ
.	4C]	16eLL
.	.	16G
.	.	16B-
.	.	16eJJ
2CC	16r	8r
.	[8.C	.
.	.	16GLL
.	.	16B-JJ
.	4C]	16eLL
.	.	16G
.	.	16B-
.	.	16eJJ
=33	=33	=33
1CC	16r	8r
.	[8.C	.
.	.	16FLL
.	.	16AJJ
.	2.C]	16cLL
.	.	16f
.	.	16c
.	.	16AJJ
.	.	16cLL
*staff2.3	*staff2.2	*staff2.1
.	.	16A
.	.	16F
.	.	16AJJ
.	.	16FLL
.	.	16D
.	.	16F
.	.	16DJJ
=34	=34	=34
*staff2.2	*staff2.1	*staff1.1
1CC	16r	8r
.	[8.BB	.
*MM94	*MM94	*MM94
.	.	16gLL
.	.	16bJJ
*MM92	*MM92	*MM92
.	2.BB]	16ddLL
.	.	16ff
*MM90	*MM90	*MM90
.	.	16dd
.	.	16bJJ
*MM88	*MM88	*MM88
.	.	16ddLL
.	.	16b
*MM84	*MM84	*MM84
.	.	16g
.	.	16bJJ
*MM80	*MM80	*MM80
.	.	16dLL
*MM72	*MM72	*MM72
.	.	16f
*MM60	*MM60	*MM60
.	.	16e
*MM54	*MM54	*MM54
.	.	16dJJ
=35	=35	=35
1CC;	1C;y	1e; 1g; 1cc;
==	==	==
*-	*-	*-
!!!AFR:  prelude
!!!EFL:  01/96
!!!END:  1994/01/07/
!!!VID:  634261930 Bach, BWV 846-01
!!!AST:  Baroque
!!!OCY:  Deutschland
!!!ODT:  1722///
!!!PDT:  1801///
!!!EED:  Walter Hewlett
!!!ENC:  Walter Hewlett
!!!YOR:  Bach Gesellschaft Edition xiv
!!!AFT:  enhanced SCORE
!!!RDT:  2011/10/07/ by Andreas Kornstaedt using massScr2hmd
!!!SCA1: Thematisch-systematisches Verzeichnis der musikalischen Werke 
!!!SCA2: Johann Sebastian Bach: Bach-Werke-Verzeichnis (Schmieder)
!!!YEC1: Copyright 1994, 2000 Center for Computer Assisted Research 
!!!YEC2: in the Humanities
!!!YEM1: Rights to all derivative editions reserved.
!!!YEM2: Refer to licensing agreement for further details.
!!!YEN:  United States of America
!!!ref:  @{OTL}, @{SCT}
!!!RNB:  Further editing after conversion by Craig Stuart Sapp 
!!!EEV:  2011/10/14/
!!muse2ps: T^@{OTL} @{ONM} in @{OKY}^C^J.S. Bach\n@{SCT}-@{OMV}^
!!muse2ps: u^@{OPR@ENG}, @{OVM@ENG}^j
